src/app/assets/svg/chat.svg

<?xml version="1.0" encoding="UTF-8"?>
<svg width="24px" height="24px" viewBox="0 0 37 37" version="1.1" xmlns="http://www.w3.org/2000/svg" xmlns:xlink="http://www.w3.org/1999/xlink">
    <g id="Page-1" stroke="none" stroke-width="1" fill="none" fill-rule="evenodd">
        <g id="Help-Center" transform="translate(-881.000000, -2233.000000)" fill="#FFFFFF">
            <g id="Icon-/-24px-/-comments-alt-solid-Copy-2" transform="translate(881.000000, 2233.000000)">
                <path d="M26.7222222,16.1858297 L26.7222222,4.62452277 C26.7222222,2.07380943 24.8786458,0 22.6111111,0 L4.11111111,0 C1.84357639,0 0,2.07380943 0,4.62452277 L0,16.1858297 C0,18.736543 1.84357639,20.8103525 4.11111111,20.8103525 L4.11111111,24.7267452 C4.11111111,25.3048105 4.69565972,25.6371981 5.10677083,25.2903589 L10.4255208,20.8031267 L22.6111111,20.8031267 C24.8786458,20.8103525 26.7222222,18.736543 26.7222222,16.1858297 Z M32.8888889,11.5613069 L28.7777778,11.5613069 L28.7777778,16.1858297 C28.7777778,20.0082868 26.0092014,23.1226139 22.6111111,23.1226139 L12.3333333,23.1226139 L12.3333333,27.7471366 C12.3333333,30.29785 14.1769097,32.3716594 16.4444444,32.3716594 L24.5189236,32.3716594 L29.8376736,36.8588916 C30.2487847,37.2057309 30.8333333,36.8733433 30.8333333,36.2952779 L30.8333333,32.3716594 L32.8888889,32.3716594 C35.1564236,32.3716594 37,30.29785 37,27.7471366 L37,16.1858297 C37,13.6351164 35.1564236,11.5613069 32.8888889,11.5613069 Z" id="comments-alt-solid"></path>
            </g>
        </g>
    </g>
</svg>

<svg xmlns="http://www.w3.org/2000/svg" width="24" height="24" viewBox="0 0 37 37"><defs/><path fill="#FFF" fill-rule="evenodd" d="M26.722 16.186V4.625C26.722 2.074 24.88 0 22.612 0h-18.5C1.843 0 0 2.074 0 4.625v11.56c0 2.552 1.844 4.625 4.111 4.625v3.917c0 .578.585.91.996.563l5.319-4.487H22.61c2.268.007 4.111-2.066 4.111-4.617zm6.167-4.625h-4.111v4.625c0 3.822-2.769 6.937-6.167 6.937H12.333v4.624c0 2.55 1.844 4.625 4.111 4.625h8.075l5.319 4.487c.41.347.995.014.995-.564v-3.923h2.056c2.267 0 4.111-2.074 4.111-4.625V16.186c0-2.55-1.844-4.625-4.111-4.625z"/></svg>
